src/assets/images/heroes/ironman.svg

<?xml version="1.0" ?><!DOCTYPE svg  PUBLIC '-//W3C//DTD SVG 1.1//EN'  'http://www.w3.org/Graphics/SVG/1.1/DTD/svg11.dtd'><svg enable-background="new 0 0 256 256" height="256px" id="Layer_1" version="1.1" viewBox="0 0 256 256" width="256px" xml:space="preserve" xmlns="http://www.w3.org/2000/svg" xmlns:xlink="http://www.w3.org/1999/xlink"><g><g><path d="M128,247.322C62.1,247.322,8.678,193.9,8.678,128C8.678,194.274,62.1,248,128,248    s119.322-53.726,119.322-120C247.322,193.9,193.9,247.322,128,247.322z" fill="#B71C1C" opacity="0.2"/><path d="M128,8.678C193.9,8.678,247.322,62.1,247.322,128C247.322,61.726,193.9,8,128,8    S8.678,61.726,8.678,128C8.678,62.1,62.1,8.678,128,8.678z" fill="#FFFFFF" opacity="0.2"/><circle cx="128" cy="128" fill="#F44336" r="119.322"/></g><path d="M113.963,97.672l13.896,2.58l15.294-2.903c0,0,4.082-43.071,4.677-49.35   c25.643,6.29,28.384,12.418,28.384,12.418s0.45,50.749,0.484,54.51c2.362,2.58,3.74,8.21,4.315,13.066   c-0.575-4.897-1.952-10.575-4.315-13.177c-0.034-3.794-0.484-54.972-0.484-54.972s-2.742-6.18-28.384-12.523   c-0.595,6.332-4.677,49.768-4.677,49.768l-15.294,2.928l-13.896-2.602c0,0-4.892-45.865-5.107-49.172   c-16.127,0.217-29.459,11.06-29.459,11.06v0.577c0,0,13.332-10.752,29.459-10.967C109.071,52.193,113.963,97.672,113.963,97.672z" fill="#BF360C" opacity="0.2"/><linearGradient gradientUnits="userSpaceOnUse" id="SVGID_1_" x1="72.8069" x2="215.5405" y1="66.4703" y2="209.2039"><stop offset="0" style="stop-color:#212121;stop-opacity:0.2"/><stop offset="1" style="stop-color:#212121;stop-opacity:0"/></linearGradient><path d="M247.276,131.258c-0.184-0.182-70.806-70.843-71.417-71.364c-1.285-1.607-6.826-6.694-28.028-11.894   c-0.387,4.081-2.246,23.697-3.5,36.935c-0.201,0.006-35.459-35.794-35.474-36.021C92.729,49.129,79.397,59.88,79.397,59.88v54.72   v0.113c0,0-2.471,6.758-3.84,13.283c-0.514,2.471-0.876,4.907-0.889,6.937c3.599,14.588,23.748,38.512,23.659,47.691   c0.01,0.167,0.002,0.321,0,0.48c1.711,2.645,7.329,10.65,7.329,10.65c0.332,0.464,1.758,2.04,1.929,2.304l-0.44,0.396l-8.787-8.838   c0,0-1.081,4.927-1.199,7.512c0.111,0.316,2.754,7.743,7.489,12.872c0.041-0.025,38.042,37.991,38.396,38.381   C200.788,239.116,245.686,190.588,247.276,131.258z" fill="url(#SVGID_1_)"/><g><path d="M109.689,188.63l36.744-0.161l4.247,5.268c0,0,2.603-3.124,7.231-11.397    c2.983-14.73,19.863-32.362,23.143-46.447c0.166-0.543,0.388-11.369-4.354-20.966c-0.034-3.762-0.484-54.51-0.484-54.51    S173.473,54.29,147.831,48c-0.595,6.279-4.677,49.35-4.677,49.35l-15.294,2.903l-13.896-2.58c0,0-4.892-45.479-5.107-48.758    C92.729,49.129,79.397,59.88,79.397,59.88v54.72v0.113c0,0-2.471,6.758-3.84,13.283c-0.514,2.471-0.876,4.907-0.889,6.937    c3.599,14.588,23.748,38.512,23.659,47.691c0.01,0.167,0.002,0.321,0,0.48c1.711,2.645,7.089,10.956,7.089,10.956L109.689,188.63z    " fill="#FFEB3B"/><path d="M123.195,205.258l1.532-1.613l6.451-0.161l1.693,1.855c0,0,10.967-1.935,18.224,2.661    c3.226-1.935,7.741-13.977,7.741-13.977c0.006-0.087,0.006-0.182,0.009-0.273c-0.069-2.564-0.976-6.133-0.976-6.133l-7.285,11.086    l-4.542-5.746l-35.372,0.325l-5.404,4.866l-6.907-10.531c0,0-1.081,4.927-1.199,7.512c0.111,0.316,2.754,7.743,7.489,12.872    C113.787,202.517,123.195,205.258,123.195,205.258z" fill="#FFEB3B"/></g><g><path d="M86.708,121.863c0,0,30.333,14.376,29.674,15.482c-0.484,3.629-4.032,6.773-4.032,6.773    C76.387,142.668,86.708,121.863,86.708,121.863z" fill="#FFFFFF"/><path d="M170.365,121.851c0,0-30.333,14.376-29.674,15.482c0.484,3.629,4.032,6.773,4.032,6.773    C180.687,142.655,170.365,121.851,170.365,121.851z" fill="#FFFFFF"/></g></g></svg>

<svg width="256" height="256" viewBox="0 0 256 256" fill="none" xmlns="http://www.w3.org/2000/svg">
<path opacity="0.2" d="M128 247.322C62.1 247.322 8.67798 193.9 8.67798 128C8.67798 194.274 62.1 248 128 248C193.9 248 247.322 194.274 247.322 128C247.322 193.9 193.9 247.322 128 247.322Z" fill="#B71C1C"/>
<path opacity="0.2" d="M128 8.678C193.9 8.678 247.322 62.1 247.322 128C247.322 61.726 193.9 8 128 8C62.1 8 8.67798 61.726 8.67798 128C8.67798 62.1 62.1 8.678 128 8.678Z" fill="white"/>
<path d="M128 247.322C193.9 247.322 247.322 193.9 247.322 128C247.322 62.1003 193.9 8.67798 128 8.67798C62.1003 8.67798 8.67798 62.1003 8.67798 128C8.67798 193.9 62.1003 247.322 128 247.322Z" fill="#F44336"/>
<path opacity="0.2" d="M113.963 97.672L127.859 100.252L143.153 97.349C143.153 97.349 147.235 54.278 147.83 47.999C173.473 54.289 176.214 60.417 176.214 60.417C176.214 60.417 176.664 111.166 176.698 114.927C179.06 117.507 180.438 123.137 181.013 127.993C180.438 123.096 179.061 117.418 176.698 114.816C176.664 111.022 176.214 59.844 176.214 59.844C176.214 59.844 173.472 53.664 147.83 47.321C147.235 53.653 143.153 97.089 143.153 97.089L127.859 100.017L113.963 97.415C113.963 97.415 109.071 51.55 108.856 48.243C92.729 48.46 79.397 59.303 79.397 59.303V59.88C79.397 59.88 92.729 49.128 108.856 48.913C109.071 52.193 113.963 97.672 113.963 97.672Z" fill="#BF360C"/>
<path d="M247.276 131.258C247.092 131.076 176.47 60.415 175.859 59.894C174.574 58.287 169.033 53.2 147.831 48C147.444 52.081 145.585 71.697 144.331 84.935C144.13 84.941 108.872 49.141 108.857 48.914C92.729 49.129 79.397 59.88 79.397 59.88V114.6V114.713C79.397 114.713 76.926 121.471 75.557 127.996C75.043 130.467 74.681 132.903 74.668 134.933C78.267 149.521 98.416 173.445 98.327 182.624C98.337 182.791 98.329 182.945 98.327 183.104C100.038 185.749 105.656 193.754 105.656 193.754C105.988 194.218 107.414 195.794 107.585 196.058L107.145 196.454L98.358 187.616C98.358 187.616 97.277 192.543 97.159 195.128C97.27 195.444 99.913 202.871 104.648 208C104.689 207.975 142.69 245.991 143.044 246.381C200.788 239.116 245.686 190.588 247.276 131.258Z" fill="url(#paint0_linear)"/>
<path d="M109.689 188.63L146.433 188.469L150.68 193.737C150.68 193.737 153.283 190.613 157.911 182.34C160.894 167.61 177.774 149.978 181.054 135.893C181.22 135.35 181.442 124.524 176.7 114.927C176.666 111.165 176.216 60.417 176.216 60.417C176.216 60.417 173.473 54.29 147.831 48C147.236 54.279 143.154 97.35 143.154 97.35L127.86 100.253L113.964 97.673C113.964 97.673 109.072 52.194 108.857 48.915C92.729 49.129 79.397 59.88 79.397 59.88V114.6V114.713C79.397 114.713 76.926 121.471 75.557 127.996C75.043 130.467 74.681 132.903 74.668 134.933C78.267 149.521 98.416 173.445 98.327 182.624C98.337 182.791 98.329 182.945 98.327 183.104C100.038 185.749 105.416 194.06 105.416 194.06L109.689 188.63Z" fill="#FFEB3B"/>
<path d="M123.195 205.258L124.727 203.645L131.178 203.484L132.871 205.339C132.871 205.339 143.838 203.404 151.095 208C154.321 206.065 158.836 194.023 158.836 194.023C158.842 193.936 158.842 193.841 158.845 193.75C158.776 191.186 157.869 187.617 157.869 187.617L150.584 198.703L146.042 192.957L110.67 193.282L105.266 198.148L98.359 187.617C98.359 187.617 97.278 192.544 97.16 195.129C97.271 195.445 99.914 202.872 104.649 208.001C113.787 202.517 123.195 205.258 123.195 205.258Z" fill="#FFEB3B"/>
<path d="M86.708 121.863C86.708 121.863 117.041 136.239 116.382 137.345C115.898 140.974 112.35 144.118 112.35 144.118C76.387 142.668 86.708 121.863 86.708 121.863Z" fill="white"/>
<path d="M170.365 121.851C170.365 121.851 140.032 136.227 140.691 137.333C141.175 140.962 144.723 144.106 144.723 144.106C180.687 142.655 170.365 121.851 170.365 121.851Z" fill="white"/>
<defs>
<linearGradient id="paint0_linear" x1="72.8069" y1="66.4703" x2="215.54" y2="209.204" gradientUnits="userSpaceOnUse">
<stop stop-color="#212121" stop-opacity="0.2"/>
<stop offset="1" stop-color="#212121" stop-opacity="0"/>
</linearGradient>
</defs>
</svg>
